X: 022023
T: Big Three Four (The)
C: BB
L: 1/8
M: 3/4
R: waltz
Q: 1/4=160
K: D
FE|"D"D2 F2 A2|"Bm"B2 A2 F2|"D"A3 d f2|"Em"e3 d e2|
"Bm"f2 d2 B2|"G"g3 a b2|"D"ag f2 d2|"A"e4 fe|
"Bm"d2 B2 F2|"Em"E3 G B2|"A"A3 c e2|"D"d3 e f2|
"G"g2 B2 d2|"D"f2 A2 d2|"A"e2 cB A2|"D" d4 :|
AB|"F#m"c2 BA F2|"D"d2 cB A2|"A"e2 cB A2|"D"f4 e^g|
"A"a3 e c2|"Bm"B3 A F2|"F#m"c2 fe cA|"E"B4 AB|
"F#m"c2 BA F2|"D"d2 cB A2|"A"e2 cB Ac|"D"f4 e^g|
"A"a3 c e2|"Bm"f2 d2 B2|"E"^G3 E B2|"A"A4 :|
